X: 15240
T: Girl I Left Behind Me, The
R: polka
M: 2/4
K: Gmajor
e/f/|:gf ed|BA AB|G2 GA|Bc de/f/|
gf ed|BA AB|G2 AB|1 G2 Bd:|2 G2 G2||
|:Bd ef|gd BG|Bd ef|g2 fg/f/|
ed BA|BG E2|GA AB|1 G2 G2:|2 G2 Bd||

